public/icons/profile/change-background.svg

<svg width="29" height="29" viewBox="0 0 29 29" fill="none" xmlns="http://www.w3.org/2000/svg">
<g id="image">
<path id="Vector" d="M22.8409 3.58484L5.34104 3.51984C4.4131 3.5174 3.52208 3.88317 2.86349 4.53689C2.2049 5.1906 1.83252 6.07888 1.82806 7.00681L1.77606 21.0067C1.77363 21.9347 2.1394 22.8257 2.79311 23.4843C3.44683 24.1429 4.3351 24.5152 5.26304 24.5197L22.7629 24.5847C23.6909 24.5871 24.5819 24.2214 25.2405 23.5676C25.8991 22.9139 26.2714 22.0257 26.2759 21.0977L26.3279 7.09782C26.3303 6.16987 25.9646 5.27886 25.3108 4.62027C24.6571 3.96168 23.7689 3.5893 22.8409 3.58484ZM18.4529 7.06856C18.9721 7.07049 19.4791 7.22633 19.9097 7.51637C20.3403 7.80641 20.6752 8.21763 20.8721 8.69802C21.069 9.17841 21.119 9.7064 21.0158 10.2152C20.9127 10.724 20.6609 11.1908 20.2924 11.5566C19.924 11.9223 19.4553 12.1706 18.9457 12.27C18.4362 12.3694 17.9086 12.3154 17.4297 12.115C16.9507 11.9145 16.542 11.5765 16.2552 11.1438C15.9684 10.7111 15.8163 10.203 15.8182 9.6838C15.8215 8.98783 16.1008 8.32161 16.5947 7.83131C17.0887 7.34102 17.757 7.0667 18.4529 7.06856ZM5.26954 22.7697C4.80541 22.768 4.36098 22.582 4.03401 22.2525C3.70705 21.9231 3.52433 21.4773 3.52605 21.0132L3.53979 17.3147L8.74344 12.7239C9.2455 12.2819 9.89717 12.048 10.5657 12.0698C11.2342 12.0916 11.8692 12.3674 12.3415 12.8411L15.8802 16.3986L9.44599 22.7852L5.26954 22.7697ZM24.5259 21.0912C24.5242 21.5553 24.3382 21.9998 24.0087 22.3267C23.6793 22.6537 23.2335 22.8364 22.7694 22.8347L11.9211 22.7944L18.5859 16.179C19.0575 15.7809 19.6549 15.5629 20.2721 15.5636C20.8892 15.5642 21.4861 15.7836 21.9569 16.1827L24.5361 18.3481L24.5259 21.0912Z" fill="black"/>
</g>
</svg>

<svg xmlns="http://www.w3.org/2000/svg" fill="none" viewBox="0 0 29 29"><path fill="#000" d="m22.84 3.58-17.5-.06a3.5 3.5 0 0 0-3.51 3.49l-.05 14a3.5 3.5 0 0 0 3.48 3.51l17.5.06a3.5 3.5 0 0 0 3.52-3.48l.05-14a3.5 3.5 0 0 0-3.49-3.52Zm-4.39 3.49a2.63 2.63 0 1 1-.02 5.25 2.63 2.63 0 0 1 .02-5.25ZM5.27 22.77a1.75 1.75 0 0 1-1.74-1.76l.01-3.7 5.2-4.59a2.63 2.63 0 0 1 3.6.12l3.54 3.56-6.43 6.39-4.18-.02Zm19.26-1.68a1.75 1.75 0 0 1-1.76 1.74l-10.85-.04 6.67-6.61a2.6 2.6 0 0 1 3.37 0l2.58 2.17-.01 2.74Z"/></svg>
